symbolic/24x24/apps/iconoclasts.svg

<svg xmlns="http://www.w3.org/2000/svg" width="24" height="24" version="1.1">
 <circle style="opacity:0.2" cx="12" cy="12.5" r="10"/>
 <circle style="fill:#8f2b00" cx="12" cy="12" r="10"/>
 <path style="opacity:0.1;fill:#ffffff" d="M 12,2 A 10,10 0 0 0 2,12 10,10 0 0 0 2.0098,12.293 10,10 0 0 1 12,2.5 10,10 0 0 1 21.99,12.207 10,10 0 0 0 22,12 10,10 0 0 0 12,2 Z"/>
 <path style="opacity:0.2" d="M 12,6.5 10,8.5 V 11.5 L 6.6035,14.898 C 5.7934,15.729 5.801,17.058 6.6211,17.879 7.4496,18.707 8.7921,18.708 9.6211,17.879 L 13,14.5 H 16 L 18,12.5 V 8.5 L 14.5,12 12.5,10 16,6.5 Z M 8,15.5 A 1,1.0001 0 0 1 9,16.5 1,1.0001 0 0 1 8,17.5 1,1.0001 0 0 1 7,16.5 1,1.0001 0 0 1 8,15.5 Z"/>
 <path style="fill:#ffd401" d="M 12,6 10,8 V 11 L 6.6035,14.398 C 5.7934,15.229 5.801,16.558 6.6211,17.379 7.4496,18.207 8.7921,18.208 9.6211,17.379 L 13,14 H 16 L 18,12 V 8 L 14.5,11.5 12.5,9.5 16,6 Z M 8,15 A 1,1.0001 0 0 1 9,16 1,1.0001 0 0 1 8,17 1,1.0001 0 0 1 7,16 1,1.0001 0 0 1 8,15 Z"/>
</svg>

<svg xmlns="http://www.w3.org/2000/svg" width="24" height="24"><circle style="opacity:.2" cx="12" cy="12.5" r="10"/><circle style="fill:#8f2b00" cx="12" cy="12" r="10"/><path style="opacity:.1;fill:#fff" d="M12 2A10 10 0 0 0 2 12a10 10 0 0 0 .01.293A10 10 0 0 1 12 2.5a10 10 0 0 1 9.99 9.707A10 10 0 0 0 22 12 10 10 0 0 0 12 2z"/><path style="opacity:.2" d="m12 6.5-2 2v3l-3.396 3.398a2.121 2.121 0 0 0 3.018 2.981L13 14.5h3l2-2v-4L14.5 12l-2-2L16 6.5zm-4 9a1 1 0 0 1 1 1 1 1 0 0 1-1 1 1 1 0 0 1-1-1 1 1 0 0 1 1-1z"/><path style="fill:#ffd401" d="m12 6-2 2v3l-3.396 3.398a2.121 2.121 0 0 0 3.018 2.981L13 14h3l2-2V8l-3.5 3.5-2-2L16 6zm-4 9a1 1 0 0 1 1 1 1 1 0 0 1-1 1 1 1 0 0 1-1-1 1 1 0 0 1 1-1z"/></svg>
